X: 30502
M: 6/8
L: 1/8
K: C
ccc c2d | eee e2g | geg gfe | ddd d2G |\
ccc c2d | eee e2g | geg fed | ccc c2 :|
|: g |\
a2F F2a | g2E E2g | agf edc | B(d/c/B/A/) G2g |\
a2F F2a | g2E E2g | egf edc | ggg g2G |
f2d f2d | edc edc | BAB GAB | cde cde |\
f2d f2d | edc edc | ced cBA | GGG G2G |
f2d f2d | edc edc | BAB GAB | cde cde |\
f2d f2d | edc edc | egf edc | ggg "^D.C."g2 :|


